X:2
T:Blue Ridge Cabin Home
C:Certain & Stacey
N:Transcribed by Wendy Anthony
L:1/8
Q:1/4=120
M:4/4
K:G
GA |: [g2B2G2G,2] Bz/B/ BB AG | "C"A[EC] z4 FG | "D"[A2D2A,2] Az/A/ AA FE | 
"G"[D4G,4] z2 GA | [g2B2G2G,2] Bz/B/ BB AG | "C"A[EC] z4 FG | "D"[A2D2A,2] Az/A/ Dc BA | 
|1 [g4B4G4G,4] z2 GA :|2 [g8B8G8G,8] | 

